assets/svg/ficon/commenting.svg

<?xml version="1.0" encoding="utf-8"?>
<svg width="1792" height="1792" viewBox="0 0 1792 1792" xmlns="http://www.w3.org/2000/svg"><path d="M640 896q0-53-37.5-90.5t-90.5-37.5-90.5 37.5-37.5 90.5 37.5 90.5 90.5 37.5 90.5-37.5 37.5-90.5zm384 0q0-53-37.5-90.5t-90.5-37.5-90.5 37.5-37.5 90.5 37.5 90.5 90.5 37.5 90.5-37.5 37.5-90.5zm384 0q0-53-37.5-90.5t-90.5-37.5-90.5 37.5-37.5 90.5 37.5 90.5 90.5 37.5 90.5-37.5 37.5-90.5zm384 0q0 174-120 321.5t-326 233-450 85.5q-110 0-211-18-173 173-435 229-52 10-86 13-12 1-22-6t-13-18q-4-15 20-37 5-5 23.5-21.5t25.5-23.5 23.5-25.5 24-31.5 20.5-37 20-48 14.5-57.5 12.5-72.5q-146-90-229.5-216.5t-83.5-269.5q0-174 120-321.5t326-233 450-85.5 450 85.5 326 233 120 321.5z" fill="#60be86"/></svg>

<svg width="1792" height="1792" xmlns="http://www.w3.org/2000/svg"><path d="M640 896q0-53-37.5-90.5T512 768t-90.5 37.5T384 896t37.5 90.5T512 1024t90.5-37.5T640 896zm384 0q0-53-37.5-90.5T896 768t-90.5 37.5T768 896t37.5 90.5T896 1024t90.5-37.5T1024 896zm384 0q0-53-37.5-90.5T1280 768t-90.5 37.5T1152 896t37.5 90.5 90.5 37.5 90.5-37.5T1408 896zm384 0q0 174-120 321.5t-326 233-450 85.5q-110 0-211-18-173 173-435 229-52 10-86 13-12 1-22-6t-13-18q-4-15 20-37 5-5 23.5-21.5T198 1654t23.5-25.5 24-31.5 20.5-37 20-48 14.5-57.5T313 1382q-146-90-229.5-216.5T0 896q0-174 120-321.5t326-233T896 256t450 85.5 326 233T1792 896z" fill="#60be86"/></svg>
